images/3034012.svg

<?xml version="1.0" encoding="UTF-8"?>
<svg xmlns="http://www.w3.org/2000/svg" xmlns:xlink="http://www.w3.org/1999/xlink" width="300pt" height="300pt" viewBox="0 0 300 300" version="1.1">
<defs>
<g>
<symbol overflow="visible" id="glyph0-0">
<path style="stroke:none;" d="M 0.640625 2.296875 L 0.640625 -9.171875 L 7.140625 -9.171875 L 7.140625 2.296875 Z M 1.375 1.578125 L 6.421875 1.578125 L 6.421875 -8.4375 L 1.375 -8.4375 Z M 1.375 1.578125 "/>
</symbol>
<symbol overflow="visible" id="glyph0-1">
<path style="stroke:none;" d="M 8.375 -8.75 L 8.375 -7.390625 C 7.9375 -7.796875 7.472656 -8.097656 6.984375 -8.296875 C 6.503906 -8.492188 5.988281 -8.59375 5.4375 -8.59375 C 4.351562 -8.59375 3.519531 -8.257812 2.9375 -7.59375 C 2.363281 -6.9375 2.078125 -5.984375 2.078125 -4.734375 C 2.078125 -3.484375 2.363281 -2.523438 2.9375 -1.859375 C 3.519531 -1.203125 4.351562 -0.875 5.4375 -0.875 C 5.988281 -0.875 6.503906 -0.972656 6.984375 -1.171875 C 7.472656 -1.367188 7.9375 -1.664062 8.375 -2.0625 L 8.375 -0.734375 C 7.925781 -0.421875 7.453125 -0.1875 6.953125 -0.03125 C 6.453125 0.113281 5.921875 0.1875 5.359375 0.1875 C 3.921875 0.1875 2.789062 -0.25 1.96875 -1.125 C 1.144531 -2.007812 0.734375 -3.210938 0.734375 -4.734375 C 0.734375 -6.253906 1.144531 -7.453125 1.96875 -8.328125 C 2.789062 -9.210938 3.921875 -9.65625 5.359375 -9.65625 C 5.921875 -9.65625 6.453125 -9.578125 6.953125 -9.421875 C 7.460938 -9.273438 7.9375 -9.050781 8.375 -8.75 Z M 8.375 -8.75 "/>
</symbol>
<symbol overflow="visible" id="glyph0-2">
<path style="stroke:none;" d="M 1.21875 -9.875 L 2.390625 -9.875 L 2.390625 0 L 1.21875 0 Z M 1.21875 -9.875 "/>
</symbol>
<symbol overflow="visible" id="glyph0-3">
<path style="stroke:none;" d="M 1.28125 -9.484375 L 3 -9.484375 L 7.203125 -1.546875 L 7.203125 -9.484375 L 8.453125 -9.484375 L 8.453125 0 L 6.71875 0 L 2.515625 -7.921875 L 2.515625 0 L 1.28125 0 Z M 1.28125 -9.484375 "/>
</symbol>
</g>
</defs>
<g id="surface33221">
<rect x="0" y="0" width="300" height="300" style="fill:rgb(100%,100%,100%);fill-opacity:1;stroke:none;"/>
<path style="fill:none;stroke-width:1.2;stroke-linecap:butt;stroke-linejoin:miter;stroke:rgb(0%,0%,0%);stroke-opacity:1;stroke-miterlimit:10;" d="M 212.21875 195.496094 L 180.835938 189.1875 "/>
<path style="fill:none;stroke-width:1.2;stroke-linecap:butt;stroke-linejoin:miter;stroke:rgb(0%,0%,0%);stroke-opacity:1;stroke-miterlimit:10;" d="M 210.5625 187.480469 L 185.457031 182.433594 "/>
<path style="fill:none;stroke-width:1.2;stroke-linecap:butt;stroke-linejoin:miter;stroke:rgb(0%,0%,0%);stroke-opacity:1;stroke-miterlimit:10;" d="M 233.367188 171.472656 L 212.21875 195.496094 "/>
<path style="fill:none;stroke-width:1.2;stroke-linecap:butt;stroke-linejoin:miter;stroke:rgb(0%,0%,0%);stroke-opacity:1;stroke-miterlimit:10;" d="M 180.835938 189.1875 L 170.605469 158.859375 "/>
<path style="fill:none;stroke-width:1.2;stroke-linecap:butt;stroke-linejoin:miter;stroke:rgb(0%,0%,0%);stroke-opacity:1;stroke-miterlimit:10;" d="M 170.605469 158.859375 L 191.757812 134.835938 "/>
<path style="fill:none;stroke-width:1.2;stroke-linecap:butt;stroke-linejoin:miter;stroke:rgb(0%,0%,0%);stroke-opacity:1;stroke-miterlimit:10;" d="M 178.375 161.433594 L 195.296875 142.214844 "/>
<path style="fill:none;stroke-width:1.2;stroke-linecap:butt;stroke-linejoin:miter;stroke:rgb(0%,0%,0%);stroke-opacity:1;stroke-miterlimit:10;" d="M 170.605469 158.859375 L 139.226562 152.554688 "/>
<path style="fill:none;stroke-width:1.2;stroke-linecap:butt;stroke-linejoin:miter;stroke:rgb(0%,0%,0%);stroke-opacity:1;stroke-miterlimit:10;" d="M 191.757812 134.835938 L 223.140625 141.140625 "/>
<path style="fill:none;stroke-width:1.2;stroke-linecap:butt;stroke-linejoin:miter;stroke:rgb(0%,0%,0%);stroke-opacity:1;stroke-miterlimit:10;" d="M 191.757812 134.835938 L 186.644531 119.671875 "/>
<path style="fill:none;stroke-width:1.2;stroke-linecap:butt;stroke-linejoin:miter;stroke:rgb(0%,80%,0%);stroke-opacity:1;stroke-miterlimit:10;" d="M 186.644531 119.671875 L 181.527344 104.503906 "/>
<path style="fill:none;stroke-width:1.2;stroke-linecap:butt;stroke-linejoin:miter;stroke:rgb(0%,0%,0%);stroke-opacity:1;stroke-miterlimit:10;" d="M 223.140625 141.140625 L 233.367188 171.472656 "/>
<path style="fill:none;stroke-width:1.2;stroke-linecap:butt;stroke-linejoin:miter;stroke:rgb(0%,0%,0%);stroke-opacity:1;stroke-miterlimit:10;" d="M 217.027344 146.582031 L 225.210938 170.84375 "/>
<path style="fill:none;stroke-width:1.2;stroke-linecap:butt;stroke-linejoin:miter;stroke:rgb(0%,0%,0%);stroke-opacity:1;stroke-miterlimit:10;" d="M 233.367188 171.472656 L 249.058594 174.625 "/>
<path style="fill:none;stroke-width:1.2;stroke-linecap:butt;stroke-linejoin:miter;stroke:rgb(0%,80%,0%);stroke-opacity:1;stroke-miterlimit:10;" d="M 249.058594 174.625 L 264.75 177.777344 "/>
<path style=" stroke:none;fill-rule:nonzero;fill:rgb(100%,100%,100%);fill-opacity:1;" d="M 257.75 169.777344 L 271.75 169.777344 L 271.75 185.777344 L 257.75 185.777344 Z M 257.75 169.777344 "/>
<g style="fill:rgb(0%,80%,0%);fill-opacity:1;">
  <use xlink:href="#glyph0-1" x="257.75" y="182.15332"/>
  <use xlink:href="#glyph0-2" x="267.056641" y="182.15332"/>
</g>
<path style=" stroke:none;fill-rule:nonzero;fill:rgb(100%,100%,100%);fill-opacity:1;" d="M 167.527344 96.503906 L 181.527344 96.503906 L 181.527344 112.503906 L 167.527344 112.503906 Z M 167.527344 96.503906 "/>
<g style="fill:rgb(0%,80%,0%);fill-opacity:1;">
  <use xlink:href="#glyph0-1" x="167.527344" y="108.879883"/>
  <use xlink:href="#glyph0-2" x="176.833984" y="108.879883"/>
</g>
<path style="fill:none;stroke-width:1.2;stroke-linecap:butt;stroke-linejoin:miter;stroke:rgb(0%,0%,0%);stroke-opacity:1;stroke-miterlimit:10;" d="M 139.226562 152.554688 L 118.074219 176.578125 "/>
<path style="fill:none;stroke-width:1.2;stroke-linecap:butt;stroke-linejoin:miter;stroke:rgb(0%,0%,0%);stroke-opacity:1;stroke-miterlimit:10;" d="M 131.457031 149.980469 L 114.535156 169.199219 "/>
<path style="fill:none;stroke-width:1.2;stroke-linecap:butt;stroke-linejoin:miter;stroke:rgb(0%,0%,0%);stroke-opacity:1;stroke-miterlimit:10;" d="M 139.226562 152.554688 L 134.109375 137.386719 "/>
<path style="fill:none;stroke-width:1.2;stroke-linecap:butt;stroke-linejoin:miter;stroke:rgb(0%,80%,0%);stroke-opacity:1;stroke-miterlimit:10;" d="M 134.109375 137.386719 L 128.996094 122.222656 "/>
<path style="fill:none;stroke-width:1.2;stroke-linecap:butt;stroke-linejoin:miter;stroke:rgb(0%,0%,0%);stroke-opacity:1;stroke-miterlimit:10;" d="M 118.074219 176.578125 L 102.382812 173.425781 "/>
<path style="fill:none;stroke-width:1.2;stroke-linecap:butt;stroke-linejoin:miter;stroke:rgb(0%,0%,100%);stroke-opacity:1;stroke-miterlimit:10;" d="M 102.382812 173.425781 L 86.695312 170.269531 "/>
<path style="fill:none;stroke-width:1.2;stroke-linecap:butt;stroke-linejoin:miter;stroke:rgb(0%,0%,100%);stroke-opacity:1;stroke-miterlimit:10;" d="M 86.695312 170.269531 L 74.921875 181.113281 "/>
<path style="fill:none;stroke-width:1.2;stroke-linecap:butt;stroke-linejoin:miter;stroke:rgb(0%,0%,0%);stroke-opacity:1;stroke-miterlimit:10;" d="M 74.921875 181.113281 L 63.144531 191.953125 "/>
<path style="fill:none;stroke-width:1.2;stroke-linecap:butt;stroke-linejoin:miter;stroke:rgb(0%,0%,100%);stroke-opacity:1;stroke-miterlimit:10;" d="M 73.351562 141.175781 L 86.695312 170.269531 "/>
<path style=" stroke:none;fill-rule:nonzero;fill:rgb(100%,100%,100%);fill-opacity:1;" d="M 81.695312 162.269531 L 91.695312 162.269531 L 91.695312 178.269531 L 81.695312 178.269531 Z M 81.695312 162.269531 "/>
<g style="fill:rgb(0%,0%,100%);fill-opacity:1;">
  <use xlink:href="#glyph0-3" x="81.695312" y="174.645508"/>
</g>
<path style="fill:none;stroke-width:1.2;stroke-linecap:butt;stroke-linejoin:miter;stroke:rgb(0%,0%,0%);stroke-opacity:1;stroke-miterlimit:10;" d="M 63.144531 191.953125 L 49.199219 184.105469 "/>
<path style="fill:none;stroke-width:1.2;stroke-linecap:butt;stroke-linejoin:miter;stroke:rgb(0%,0%,100%);stroke-opacity:1;stroke-miterlimit:10;" d="M 49.199219 184.105469 L 35.25 176.257812 "/>
<path style="fill:none;stroke-width:1.2;stroke-linecap:butt;stroke-linejoin:miter;stroke:rgb(0%,0%,0%);stroke-opacity:1;stroke-miterlimit:10;" d="M 64.050781 183.820312 L 52.890625 177.542969 "/>
<path style="fill:none;stroke-width:1.2;stroke-linecap:butt;stroke-linejoin:miter;stroke:rgb(0%,0%,100%);stroke-opacity:1;stroke-miterlimit:10;" d="M 52.890625 177.542969 L 41.734375 171.261719 "/>
<path style="fill:none;stroke-width:1.2;stroke-linecap:butt;stroke-linejoin:miter;stroke:rgb(0%,0%,100%);stroke-opacity:1;stroke-miterlimit:10;" d="M 35.25 176.257812 L 38.402344 160.566406 "/>
<path style="fill:none;stroke-width:1.2;stroke-linecap:butt;stroke-linejoin:miter;stroke:rgb(0%,0%,0%);stroke-opacity:1;stroke-miterlimit:10;" d="M 38.402344 160.566406 L 41.554688 144.875 "/>
<path style=" stroke:none;fill-rule:nonzero;fill:rgb(100%,100%,100%);fill-opacity:1;" d="M 30.25 168.257812 L 40.25 168.257812 L 40.25 184.257812 L 30.25 184.257812 Z M 30.25 168.257812 "/>
<g style="fill:rgb(0%,0%,100%);fill-opacity:1;">
  <use xlink:href="#glyph0-3" x="30.25" y="180.633789"/>
</g>
<path style="fill:none;stroke-width:1.2;stroke-linecap:butt;stroke-linejoin:miter;stroke:rgb(0%,0%,0%);stroke-opacity:1;stroke-miterlimit:10;" d="M 41.554688 144.875 L 57.453125 143.027344 "/>
<path style="fill:none;stroke-width:1.2;stroke-linecap:butt;stroke-linejoin:miter;stroke:rgb(0%,0%,100%);stroke-opacity:1;stroke-miterlimit:10;" d="M 57.453125 143.027344 L 73.351562 141.175781 "/>
<path style="fill:none;stroke-width:1.2;stroke-linecap:butt;stroke-linejoin:miter;stroke:rgb(0%,0%,0%);stroke-opacity:1;stroke-miterlimit:10;" d="M 45.605469 151.988281 L 58.324219 150.507812 "/>
<path style="fill:none;stroke-width:1.2;stroke-linecap:butt;stroke-linejoin:miter;stroke:rgb(0%,0%,100%);stroke-opacity:1;stroke-miterlimit:10;" d="M 58.324219 150.507812 L 71.039062 149.027344 "/>
<path style=" stroke:none;fill-rule:nonzero;fill:rgb(100%,100%,100%);fill-opacity:1;" d="M 68.351562 133.175781 L 78.351562 133.175781 L 78.351562 149.175781 L 68.351562 149.175781 Z M 68.351562 133.175781 "/>
<g style="fill:rgb(0%,0%,100%);fill-opacity:1;">
  <use xlink:href="#glyph0-3" x="68.351562" y="145.551758"/>
</g>
<path style=" stroke:none;fill-rule:nonzero;fill:rgb(100%,100%,100%);fill-opacity:1;" d="M 114.996094 114.222656 L 128.996094 114.222656 L 128.996094 130.222656 L 114.996094 130.222656 Z M 114.996094 114.222656 "/>
<g style="fill:rgb(0%,80%,0%);fill-opacity:1;">
  <use xlink:href="#glyph0-1" x="114.996094" y="126.598633"/>
  <use xlink:href="#glyph0-2" x="124.302734" y="126.598633"/>
</g>
</g>
</svg>

<svg xmlns="http://www.w3.org/2000/svg" xmlns:xlink="http://www.w3.org/1999/xlink" width="300pt" height="300pt" viewBox="0 0 300 300"><defs><symbol overflow="visible"><path d="M.64 2.297v-11.47h6.5v11.47zm.735-.72h5.047V-8.436H1.375zm0 0"/></symbol><symbol overflow="visible" id="a"><path d="M8.375-8.75v1.36c-.438-.407-.902-.708-1.39-.907-.48-.195-.997-.297-1.548-.297-1.085 0-1.917.336-2.5 1-.574.657-.86 1.61-.86 2.86 0 1.25.286 2.21.86 2.875.583.657 1.415.985 2.5.985.55 0 1.067-.098 1.547-.297.49-.195.954-.492 1.39-.89v1.328c-.448.312-.92.546-1.42.703-.5.143-1.032.217-1.595.217-1.438 0-2.57-.437-3.39-1.312C1.144-2.008.733-3.21.733-4.735c0-1.52.41-2.718 1.235-3.593.82-.883 1.952-1.328 3.39-1.328.562 0 1.093.078 1.593.234.508.15.984.37 1.422.672zm0 0"/></symbol><symbol overflow="visible" id="b"><path d="M1.22-9.875h1.17V0H1.22zm0 0"/></symbol><symbol overflow="visible" id="c"><path d="M1.28-9.484H3l4.203 7.937v-7.937h1.25V0H6.72L2.515-7.922V0H1.28zm0 0"/></symbol></defs><g><path fill="#fff" d="M0 0h300v300H0z"/><path d="M212.22 195.496l-31.384-6.31M210.563 187.48l-25.106-5.046M233.367 171.473l-21.148 24.023M180.836 189.188l-10.23-30.33M170.605 158.86l21.153-24.024M178.375 161.434l16.922-19.22M170.605 158.86l-31.378-6.305M191.758 134.836l31.383 6.305M191.758 134.836l-5.113-15.164" stroke-width="1.2" stroke="#000" stroke-miterlimit="10" fill="none"/><path d="M186.645 119.672l-5.118-15.168" stroke-width="1.2" stroke="#0c0" stroke-miterlimit="10" fill="none"/><path d="M223.14 141.14l10.227 30.333M217.027 146.582l8.184 24.262M233.367 171.473l15.692 3.152" stroke-width="1.2" stroke="#000" stroke-miterlimit="10" fill="none"/><path d="M249.06 174.625l15.69 3.152" stroke-width="1.2" stroke="#0c0" stroke-miterlimit="10" fill="none"/><path d="M257.75 169.777h14v16h-14zm0 0" fill="#fff"/><g fill="#0c0"><use xlink:href="#a" x="257.75" y="182.153"/><use xlink:href="#b" x="267.057" y="182.153"/></g><path d="M167.527 96.504h14v16h-14zm0 0" fill="#fff"/><g fill="#0c0"><use xlink:href="#a" x="167.527" y="108.88"/><use xlink:href="#b" x="176.834" y="108.88"/></g><path d="M139.227 152.555l-21.153 24.023M131.457 149.98l-16.922 19.22M139.227 152.555l-5.118-15.168" stroke-width="1.2" stroke="#000" stroke-miterlimit="10" fill="none"/><path d="M134.11 137.387l-5.114-15.164" stroke-width="1.2" stroke="#0c0" stroke-miterlimit="10" fill="none"/><path d="M118.074 176.578l-15.69-3.152" stroke-width="1.2" stroke="#000" stroke-miterlimit="10" fill="none"/><path d="M102.383 173.426l-15.688-3.156M86.695 170.27l-11.773 10.843" stroke-width="1.2" stroke="#00f" stroke-miterlimit="10" fill="none"/><path d="M74.922 181.113l-11.777 10.84" stroke-width="1.2" stroke="#000" stroke-miterlimit="10" fill="none"/><path d="M73.352 141.176l13.343 29.094" stroke-width="1.2" stroke="#00f" stroke-miterlimit="10" fill="none"/><path d="M81.695 162.27h10v16h-10zm0 0" fill="#fff"/><use xlink:href="#c" x="81.695" y="174.646" fill="#00f"/><path d="M63.145 191.953L49.2 184.105" stroke-width="1.2" stroke="#000" stroke-miterlimit="10" fill="none"/><path d="M49.2 184.105l-13.95-7.847" stroke-width="1.2" stroke="#00f" stroke-miterlimit="10" fill="none"/><path d="M64.05 183.82l-11.16-6.277" stroke-width="1.2" stroke="#000" stroke-miterlimit="10" fill="none"/><path d="M52.89 177.543l-11.156-6.28M35.25 176.258l3.152-15.692" stroke-width="1.2" stroke="#00f" stroke-miterlimit="10" fill="none"/><path d="M38.402 160.566l3.153-15.69" stroke-width="1.2" stroke="#000" stroke-miterlimit="10" fill="none"/><path d="M30.25 168.258h10v16h-10zm0 0" fill="#fff"/><use xlink:href="#c" x="30.25" y="180.634" fill="#00f"/><path d="M41.555 144.875l15.898-1.848" stroke-width="1.2" stroke="#000" stroke-miterlimit="10" fill="none"/><path d="M57.453 143.027l15.9-1.85" stroke-width="1.2" stroke="#00f" stroke-miterlimit="10" fill="none"/><path d="M45.605 151.988l12.72-1.48" stroke-width="1.2" stroke="#000" stroke-miterlimit="10" fill="none"/><path d="M58.324 150.508l12.715-1.48" stroke-width="1.2" stroke="#00f" stroke-miterlimit="10" fill="none"/><path d="M68.352 133.176h10v16h-10zm0 0" fill="#fff"/><use xlink:href="#c" x="68.352" y="145.552" fill="#00f"/><path d="M114.996 114.223h14v16h-14zm0 0" fill="#fff"/><g fill="#0c0"><use xlink:href="#a" x="114.996" y="126.599"/><use xlink:href="#b" x="124.303" y="126.599"/></g></g></svg>
